keyboard-f9.svg

<svg  viewBox="0 0 24 24" fill="currentColor"><path  d="M5 7H11V9H7V11H10V13H7V17H5V7M17 17H13V15H17V13H15C13.9 13 13 12.11 13 11V9C13 7.9 13.9 7 15 7H17C18.11 7 19 7.9 19 9V15C19 16.11 18.11 17 17 17M17 11V9H15V11H17Z"/></svg>

<svg fill="currentColor" viewBox="0 0 24 24"><path d="M5 7h6v2H7v2h3v2H7v4H5zm12 10h-4v-2h4v-2h-2a2 2 0 0 1-2-2V9c0-1.1.9-2 2-2h2a2 2 0 0 1 2 2v6c0 1.11-.89 2-2 2m0-6V9h-2v2z"/></svg>
